X:1
T: Caerketton
C:
R:Strathspey
Q: 128
K:Dm
M:4/4
L:1/16
|:A,4 D3E F3G A4|GC3 C4 GC3 C4|A,4 D3E F3G A4|f4 A,3B,1/2C1/2 D8|
A,4 D3E F3G A4|GC3 C4 GC3 C4|A,4 D3E F3G A4|f4 A,3B,1/2C1/2 D8|
F4 F3G Ac3 f4|cC3 C4 cC3 C4|D4 F3G A4 dd3|a4 A,3B,1/2C1/2 D8|
F4 F3G Ac3 f4|cC3 C4 cC3 C4|D4 F3G A4 dd3|a4 A,3B,1/2C1/2 D8:|

